brandFactory_export/3.Masa/Coche acelerando velocidad_3Masa.svg

<?xml version="1.0" encoding="UTF-8"?>
<svg width="24px" height="24px" viewBox="0 0 24 24" version="1.1" xmlns="http://www.w3.org/2000/svg" xmlns:xlink="http://www.w3.org/1999/xlink">
    <title>3.Masa/Coche acelerando velocidad_3Masa</title>
    <g id="Symbols" stroke="none" stroke-width="1" fill="none" fill-rule="evenodd">
        <g id="3.Masa/Coche-acelerando-velocidad_3Masa" fill="#5CB615" fill-rule="nonzero">
            <path d="M17.3478992,16.3932773 C18.1915966,16.3932773 18.5848739,16 18.5848739,15.1529412 C18.5848739,14.3058824 18.1915966,13.912605 17.3478992,13.912605 C16.5042017,13.912605 16.1109244,14.3058824 16.1109244,15.1529412 C16.1109244,16 16.5042017,16.3932773 17.3478992,16.3932773 Z M9.02857143,16.3865546 C9.87226891,16.3865546 10.2655462,15.9932773 10.2655462,15.1462185 C10.2655462,14.2991597 9.87226891,13.9058824 9.02857143,13.9058824 C8.18487395,13.9058824 7.79157528,14.2991597 7.79157528,15.1462185 C7.78823529,15.9932773 8.18151261,16.3865546 9.02857143,16.3865546 Z M22.9680672,11.8386555 C24.2252101,13.8957983 23.3915966,15.2907563 22.7798319,15.7378151 C22.6554622,15.8285714 22.507563,15.8756303 22.3563025,15.8756303 L19.9394958,15.8756303 C19.6773109,17.0957983 18.7394958,17.8352941 17.3478992,17.8352941 C15.9563025,17.8352941 15.0184874,17.0957983 14.7563025,15.8756303 L11.6168067,15.8756303 C11.3512605,17.092437 10.4134454,17.8252101 9.02521008,17.8252101 C7.63697479,17.8252101 6.70252101,17.092437 6.43361345,15.8756303 L4.8605042,15.8756303 C4.52773109,15.8756303 4.24201681,15.6504202 4.16134454,15.3243697 C4.1512605,15.2840336 3.91932773,14.3058824 4.00336134,12.8470588 C3.99327731,11.7613445 4.66554622,9.92941176 6.18823529,8.39327731 C7.2605042,7.31092437 9.11932773,6.02016807 11.8991597,6.02016807 C16.2252101,6.02016807 18.4268908,8.47058824 19.0756303,9.34789916 C19.8890756,9.48235294 21.8420168,9.98655462 22.9680672,11.8386555 Z M2.79327731,13.0588235 C3.18991597,13.0588235 3.51260504,13.3815126 3.51260504,13.7781513 C3.51260504,14.1747899 3.18991597,14.497479 2.79327731,14.497479 L1.22689076,14.497479 C0.830252101,14.497479 0.507563025,14.1747899 0.507563025,13.7781513 C0.507563025,13.3815126 0.830252101,13.0588235 1.22689076,13.0588235 L2.79327731,13.0588235 Z M3.09915966,10.6588235 C3.49579832,10.6588235 3.81848739,10.9815126 3.81848739,11.3781513 C3.81848739,11.7747899 3.49579832,12.097479 3.09915966,12.097479 L0.719327731,12.097479 C0.322689076,12.097479 0,11.7747899 0,11.3781513 C0,10.9815126 0.322689076,10.6588235 0.719327731,10.6588235 L3.09915966,10.6588235 Z M4.57142857,9.00840336 C4.57142857,9.40504202 4.2487395,9.72773109 3.85210084,9.72773109 L2.00336134,9.72773109 C1.60672269,9.72773109 1.28403361,9.40504202 1.28403361,9.00840336 C1.28403361,8.61176471 1.60672269,8.28907563 2.00336134,8.28907563 L3.85210084,8.28907563 C4.25210084,8.28907563 4.57142857,8.61176471 4.57142857,9.00840336 Z" id="Coche-acelerando-velocidad_3Masa"></path>
        </g>
    </g>
</svg>

<svg width="24" height="24" viewBox="0 0 24 24" xmlns="http://www.w3.org/2000/svg"><path d="M17.348 16.393c.844 0 1.237-.393 1.237-1.24s-.393-1.24-1.237-1.24c-.844 0-1.237.393-1.237 1.24s.393 1.24 1.237 1.24zm-8.32-.006c.844 0 1.238-.394 1.238-1.24 0-.848-.394-1.241-1.237-1.241-.844 0-1.237.393-1.237 1.24-.004.847.39 1.24 1.237 1.24zm13.94-4.548c1.257 2.057.424 3.452-.188 3.899a.717.717 0 01-.424.138H19.94c-.262 1.22-1.2 1.96-2.591 1.96-1.392 0-2.33-.74-2.592-1.96h-3.14c-.265 1.216-1.203 1.95-2.59 1.95-1.389 0-2.323-.734-2.592-1.95H4.86a.718.718 0 01-.7-.552c-.01-.04-.242-1.018-.158-2.477-.01-1.086.663-2.918 2.185-4.454C7.261 7.311 9.12 6.02 11.9 6.02c4.326 0 6.528 2.45 7.177 3.328.813.134 2.766.639 3.892 2.49zm-20.175 1.22a.72.72 0 010 1.438H1.227a.72.72 0 010-1.438h1.566zm.306-2.4a.72.72 0 010 1.438H.72a.72.72 0 010-1.438H3.1zm1.472-1.65a.72.72 0 01-.719.719H2.003a.72.72 0 010-1.439h1.85c.4 0 .718.323.718.72z" fill="#5CB615" fill-rule="nonzero"/></svg>
